public/pointer.svg

<svg fill="none" height="27" viewBox="0 0 26 27" width="26" xmlns="http://www.w3.org/2000/svg"><path d="m3.82099 1.23436c-.21888.12544-.3959.31265-.5089.5382s-.15697.47942-.1264.72983l1.93796 20.79711c.12388 1.0098 1.31805 1.4804 2.09723.8264l3.64582-3.0598 1.8339 3.1765c1.0546 1.8264 3.1726 2.0185 4.9987.9639 1.8269-1.0547 2.7195-2.9847 1.6649-4.8111l-1.8275-3.1652 4.4023-1.6017c.9558-.3481 1.1454-1.6171.3329-2.2293l-17.04207-12.07713c-.2005-.15084-.44084-.23955-.69126-.25514s-.49992.04262-.71758.16743zm2.27702 3.95183 12.74319 8.84011-5.056 1.8397.0236.0367 3.3342 5.7751c.3663.6343-.0913.9413-.7258 1.3075-.6345.3663-1.129.6092-1.4953-.0251l-3.3342-5.7751-.0264-.0508-4.17909 3.5079z" fill="#5b66fe"/></svg>

<svg width="26" height="27" viewBox="0 0 26 27" fill="none" xmlns="http://www.w3.org/2000/svg">
<path d="M3.82099 1.23436C3.60211 1.3598 3.42509 1.54701 3.31209 1.77256C3.19909 1.99811 3.15512 2.25198 3.18569 2.50239L5.12365 23.2995C5.24753 24.3093 6.4417 24.7799 7.22088 24.1259L10.8667 21.0661L12.7006 24.2426C13.7552 26.069 15.8732 26.2611 17.6993 25.2065C19.5262 24.1518 20.4188 22.2218 19.3642 20.3954L17.5367 17.2302L21.939 15.6285C22.8948 15.2804 23.0844 14.0114 22.2719 13.3992L5.22983 1.32207C5.02933 1.17123 4.78899 1.08252 4.53857 1.06693C4.28815 1.05134 4.03865 1.10955 3.82099 1.23436ZM6.09801 5.18619L18.8412 14.0263L13.7852 15.866L13.8088 15.9027L17.143 21.6778C17.5093 22.3121 17.0517 22.6191 16.4172 22.9853C15.7827 23.3516 15.2882 23.5945 14.9219 22.9602L11.5877 17.1851L11.5613 17.1343L7.38221 20.6422L6.09801 5.18619Z" fill="#5B66FE"/>
</svg>
